src/images/svg/symbols/markets-stocks-and-indices/american-stocks/stocks-bank-of-america.svg

<svg width="32" height="32" viewBox="0 0 32 32" fill="none" xmlns="http://www.w3.org/2000/svg">
<path d="M0 16C0 7.16344 7.16344 0 16 0C24.8366 0 32 7.16344 32 16C32 24.8366 24.8366 32 16 32C7.16344 32 0 24.8366 0 16Z" fill="#EE2A24"/>
<path d="M21.0325 12.025C19.1806 11.2088 17.2703 10.5319 15.3175 10C14.6875 10.12 14.0725 10.2625 13.4575 10.42C15.3974 10.984 17.2886 11.7038 19.1125 12.5725C19.75 12.3775 20.4025 12.1825 21.0325 12.025Z" fill="white"/>
<path d="M18.085 12.895C16.2691 12.0253 14.3915 11.2908 12.4675 10.6975C11.7775 10.8925 11.1025 11.11 10.45 11.3275C12.4297 11.9289 14.3603 12.6811 16.225 13.5775C16.84 13.345 17.455 13.1275 18.085 12.91V12.895Z" fill="white"/>
<path d="M12.8425 20.1925C16.8126 17.3767 21.1739 15.1581 25.7875 13.6075C26.5375 13.9975 27.25 14.4175 28 14.8675C23.592 16.7169 19.4585 19.1622 15.715 22.135C14.785 21.4375 13.8325 20.8075 12.8425 20.1925Z" fill="white"/>
<path d="M22.5776 12.1C17.7881 13.3579 13.2412 15.4033 9.12256 18.1525C10.0376 18.61 10.9451 19.0825 11.8376 19.6C15.8837 16.7999 20.3425 14.6489 25.0526 13.225L24.8482 13.1265C24.106 12.7686 23.3607 12.4091 22.5776 12.1Z" fill="white"/>
<path d="M10.63 12.0625C8.33537 12.7927 6.11537 13.7395 4 14.89C4.675 15.145 5.3425 15.4075 5.995 15.685C8.03713 14.4777 10.1924 13.4729 12.43 12.685C11.8375 12.4675 11.245 12.25 10.63 12.07V12.0625Z" fill="white"/>
<path d="M13.2775 12.9925C14.0275 13.27 14.7025 13.5625 15.4 13.9C13.1808 14.7896 11.0365 15.8555 8.98752 17.0875C8.29002 16.7275 7.58502 16.375 6.87251 16.06C8.9222 14.8681 11.0641 13.8424 13.2775 12.9925Z" fill="white"/>
</svg>

<svg width="32" height="32" fill="none" xmlns="http://www.w3.org/2000/svg"><path d="M0 16C0 7.163 7.163 0 16 0s16 7.163 16 16-7.163 16-16 16S0 24.837 0 16Z" fill="#EE2A24"/><path d="M21.032 12.025A40.676 40.676 0 0 0 15.318 10c-.63.12-1.245.262-1.86.42a37.493 37.493 0 0 1 5.655 2.152c.637-.194 1.29-.39 1.92-.547ZM18.085 12.895a40.921 40.921 0 0 0-5.618-2.197c-.69.194-1.365.412-2.017.63a40.5 40.5 0 0 1 5.775 2.25c.615-.233 1.23-.45 1.86-.668v-.015ZM12.842 20.192a49.8 49.8 0 0 1 12.946-6.585c.75.39 1.462.81 2.212 1.26a52.276 52.276 0 0 0-12.285 7.268 39.334 39.334 0 0 0-2.873-1.943ZM22.578 12.1a44.677 44.677 0 0 0-13.455 6.053c.915.457 1.822.93 2.715 1.447a47.249 47.249 0 0 1 13.215-6.375l-.205-.098c-.742-.358-1.487-.718-2.27-1.027ZM10.63 12.063A37.985 37.985 0 0 0 4 14.89c.675.255 1.343.518 1.995.795a36.4 36.4 0 0 1 6.435-3 28.213 28.213 0 0 0-1.8-.615v-.008ZM13.277 12.992c.75.278 1.426.57 2.123.908a44.775 44.775 0 0 0-6.412 3.187 39.192 39.192 0 0 0-2.115-1.027 44.409 44.409 0 0 1 6.404-3.067Z" fill="#fff"/></svg>
